src/img/icons/like.svg

<svg width="32" height="32" viewBox="0 0 32 32" fill="none" xmlns="http://www.w3.org/2000/svg">
<path d="M27.8052 11.9384C28.3815 11.9384 28.8914 12.1601 29.3348 12.6036C29.7783 13.047 30 13.5569 30 14.1332V16.4347C30 16.5841 29.9994 16.7406 29.9982 16.9041C29.9971 17.0676 29.9683 17.2222 29.9119 17.3679L25.7949 26.9916C25.5935 27.4547 25.256 27.846 24.7824 28.1655C24.3085 28.4852 23.82 28.6451 23.3166 28.6451H8.49322V11.9384L16.3957 3.84465C16.6528 3.58153 16.9559 3.42295 17.3051 3.36892C17.6543 3.3149 17.9863 3.37641 18.3011 3.55346C18.6124 3.73028 18.8439 3.98183 18.9954 4.30811C19.1472 4.63438 19.1821 4.97469 19.1 5.32903L17.6956 11.9384H27.8052ZM10.2562 12.6867V26.8818H23.5447C23.6378 26.8818 23.7375 26.8549 23.8439 26.8011C23.9503 26.747 24.0306 26.657 24.0846 26.5309L28.2371 16.7311V14.1332C28.2371 14.0132 28.1951 13.9112 28.1111 13.8273C28.0271 13.7433 27.9252 13.7013 27.8052 13.7013H15.5187L17.2549 5.52058L10.2562 12.6867ZM4.19481 28.6451C3.59138 28.6451 3.07472 28.4289 2.64483 27.9967C2.21494 27.5645 2 27.049 2 26.4502V14.1332C2 13.5342 2.21494 13.0186 2.64483 12.5864C3.07472 12.1544 3.59138 11.9384 4.19481 11.9384H8.49322V13.7013H4.19481C4.06898 13.7013 3.9656 13.7433 3.88468 13.8273C3.80375 13.9112 3.76329 14.0132 3.76329 14.1332V26.4502C3.76329 26.5761 3.80375 26.6795 3.88468 26.7604C3.9656 26.8413 4.06898 26.8818 4.19481 26.8818H8.49322V28.6451H4.19481Z" fill="#131212"/>
</svg>

<svg xmlns="http://www.w3.org/2000/svg" viewBox="0 0 32 32">
  <path fill="currentColor" d="M27.805 11.938c.576 0 1.086.222 1.53.666.443.443.665.953.665 1.53v2.3c0 .15 0 .307-.002.47 0 .164-.03.318-.086.464l-4.117 9.624c-.202.463-.539.854-1.013 1.174-.474.32-.962.48-1.465.48H8.493V11.937l7.903-8.093c.257-.263.56-.422.91-.476.348-.054.68.007.995.184.311.177.543.429.694.755.152.326.187.667.105 1.021l-1.404 6.61h10.11Zm-17.549.749v14.195h13.289a.667.667 0 0 0 .299-.08.517.517 0 0 0 .24-.271l4.153-9.8v-2.598a.416.416 0 0 0-.126-.306.416.416 0 0 0-.306-.126H15.52l1.736-8.18-6.999 7.166ZM4.195 28.645c-.604 0-1.12-.216-1.55-.648A2.117 2.117 0 0 1 2 26.45V14.133c0-.599.215-1.114.645-1.547.43-.432.946-.648 1.55-.648h4.298v1.763H4.195a.424.424 0 0 0-.432.432V26.45c0 .126.04.23.122.31a.42.42 0 0 0 .31.122h4.298v1.763H4.195Z"/>
</svg>
